crates/cutroom-media/assets/luts/slog3_to_rec709.cube
TITLE "Cutroom built-in S-Log3/S-Gamut3 to Rec.709 (approximate)"
LUT_3D_SIZE 33
DOMAIN_MIN 0.0 0.0 0.0
DOMAIN_MAX 1.0 1.0 1.0
0.000000 0.000000 0.000000
0.000000 0.000000 0.000000
0.016653 0.000000 0.000000
0.056533 0.000000 0.000000
0.095945 0.000000 0.000000
0.128806 0.000000 0.000000
0.163140 0.000000 0.000000
0.203622 0.000000 0.000000
0.248765 0.000000 0.000000
0.299344 0.000000 0.000000
0.356205 0.000000 0.000000
0.420286 0.000000 0.000000
0.492635 0.000000 0.000000
0.574427 0.000000 0.000000
0.666989 0.000000 0.000000
0.771816 0.000000 0.000000
0.890598 0.000000 0.000000
1.000000 0.000000 0.000000
1.000000 0.000000 0.000000
1.000000 0.000000 0.000000
1.000000 0.000000 0.000000
1.000000 0.000000 0.000000
1.000000 0.000000 0.000000
1.000000 0.000000 0.000000
1.000000 0.000000 0.000000
1.000000 0.000000 0.000000
1.000000 0.000000 0.000000
1.000000 0.000000 0.000000
1.000000 0.000000 0.000000
1.000000 0.000000 0.000000
1.000000 0.000000 0.000000
1.000000 0.000000 0.000000
1.000000 0.000000 0.000000
0.000000 0.000000 0.000000
0.000000 0.000000 0.000000
0.000000 0.000000 0.000000
0.039668 0.000000 0.000000
0.079547 0.000000 0.000000
0.115659 0.000000 0.000000
0.152175 0.000000 0.000000
0.194489 0.000000 0.000000
0.241098 0.000000 0.000000
0.292873 0.000000 0.000000
0.350722 0.000000 0.000000
0.415627 0.000000 0.000000
0.488667 0.000000 0.000000
0.571044 0.000000 0.000000
0.664101 0.000000 0.000000
0.769348 0.000000 0.000000
0.888488 0.000000 0.000000
1.000000 0.000000 0.000000
1.000000 0.000000 0.000000
1.000000 0.000000 0.000000
1.000000 0.000000 0.000000
1.000000 0.000000 0.000000
1.000000 0.000000 0.000000
1.000000 0.000000 0.000000
1.000000 0.000000 0.000000
1.000000 0.000000 0.000000
1.000000 0.000000 0.000000
1.000000 0.000000 0.000000
1.000000 0.000000 0.000000
1.000000 0.000000 0.000000
1.000000 0.000000 0.000000
1.000000 0.000000 0.000000
1.000000 0.000000 0.000000
0.000000 0.000000 0.000000
0.000000 0.000000 0.000000
0.000000 0.000000 0.000000
0.022803 0.000000 0.000000
0.062682 0.000000 0.000000
0.101445 0.000000 0.000000
0.140592 0.000000 0.000000
0.184995 0.000000 0.000000
0.233214 0.000000 0.000000
0.286268 0.000000 0.000000
0.345155 0.000000 0.000000
0.410915 0.000000 0.000000
0.484667 0.000000 0.000000
0.567640 0.000000 0.000000
0.661200 0.000000 0.000000
0.766872 0.000000 0.000000
0.886373 0.000000 0.000000
1.000000 0.000000 0.000000
1.000000 0.000000 0.000000
1.000000 0.000000 0.000000
1.000000 0.000000 0.000000
1.000000 0.000000 0.000000
1.000000 0.000000 0.000000
1.000000 0.000000 0.000000
1.000000 0.000000 0.000000
1.000000 0.000000 0.000000
1.000000 0.000000 0.000000
1.000000 0.000000 0.000000
1.000000 0.000000 0.000000
1.000000 0.000000 0.000000
1.000000 0.000000 0.000000
1.000000 0.000000 0.000000
1.000000 0.000000 0.000000
0.000000 0.022964 0.000000
0.000000 0.019209 0.000000
0.000000 0.015454 0.000000
0.005937 0.011700 0.000000
0.045817 0.007945 0.000000
0.085879 0.004190 0.000000
0.128280 0.000000 0.000000
0.175095 0.000000 0.000000
0.225094 0.000000 0.000000
0.279522 0.000000 0.000000
0.339502 0.000000 0.000000
0.406150 0.000000 0.000000
0.480633 0.000000 0.000000
0.564215 0.000000 0.000000
0.658285 0.000000 0.000000
0.764387 0.000000 0.000000
0.884252 0.000000 0.000000
1.000000 0.000000 0.000000
1.000000 0.000000 0.000000
1.000000 0.000000 0.000000
1.000000 0.000000 0.000000
1.000000 0.000000 0.000000
1.000000 0.000000 0.000000
1.000000 0.000000 0.000000
1.000000 0.000000 0.000000
1.000000 0.000000 0.000000
1.000000 0.000000 0.000000
1.000000 0.000000 0.000000
1.000000 0.000000 0.000000
1.000000 0.000000 0.000000
1.000000 0.000000 0.000000
1.000000 0.000000 0.000000
1.000000 0.000000 0.000000
0.000000 0.051654 0.000000
0.000000 0.047899 0.000000
0.000000 0.044144 0.000000
0.000000 0.040390 0.000000
0.028952 0.036635 0.000000
0.068832 0.032880 0.000000
0.115094 0.028182 0.000000
0.164739 0.021592 0.000000
0.216718 0.012860 0.000000
0.272626 0.001289 0.000000
0.333759 0.000000 0.000000
0.401329 0.000000 0.000000
0.476565 0.000000 0.000000
0.560768 0.000000 0.000000
0.655356 0.000000 0.000000
0.761893 0.000000 0.000000
0.882126 0.000000 0.000000
1.000000 0.000000 0.000000
1.000000 0.000000 0.000000
1.000000 0.000000 0.000000
1.000000 0.000000 0.000000
1.000000 0.000000 0.000000
1.000000 0.000000 0.000000
1.000000 0.000000 0.000000
1.000000 0.000000 0.000000
1.000000 0.000000 0.000000
1.000000 0.000000 0.000000
1.000000 0.000000 0.000000
1.000000 0.000000 0.000000
1.000000 0.000000 0.000000
1.000000 0.000000 0.000000
1.000000 0.000000 0.000000
1.000000 0.000000 0.000000
0.000000 0.080344 0.000000
0.000000 0.076589 0.000000
0.000000 0.072835 0.000000
0.000000 0.069080 0.000000
0.012087 0.065325 0.000000
0.051967 0.061570 0.000000
0.100831 0.056872 0.000000
0.153859 0.050282 0.000000
0.208060 0.041550 0.000000
0.265569 0.029979 0.000000
0.327921 0.014645 0.000000
0.396451 0.000000 0.000000
0.472461 0.000000 0.000000
0.557299 0.000000 0.000000
0.652413 0.000000 0.000000
0.759391 0.000000 0.000000
0.879994 0.000000 0.000000
1.000000 0.000000 0.000000
1.000000 0.000000 0.000000
1.000000 0.000000 0.000000
1.000000 0.000000 0.000000
1.000000 0.000000 0.000000
1.000000 0.000000 0.000000
1.000000 0.000000 0.000000
1.000000 0.000000 0.000000
1.000000 0.000000 0.000000
1.000000 0.000000 0.000000
1.000000 0.000000 0.000000
1.000000 0.000000 0.000000
1.000000 0.000000 0.000000
1.000000 0.000000 0.000000
1.000000 0.000000 0.000000
1.000000 0.000000 0.000000
0.000000 0.113063 0.000000
0.000000 0.109952 0.000000
0.000000 0.106784 0.000000
0.000000 0.103556 0.000000
0.000000 0.100263 0.000000
0.030865 0.096902 0.000000
0.080763 0.092595 0.000000
0.139384 0.086346 0.000000
0.196789 0.077447 0.000000
0.256498 0.065876 0.000000
0.320476 0.050542 0.000000
0.390263 0.030224 0.000000
0.467274 0.003300 0.000000
0.552926 0.000000 0.000000
0.648711 0.000000 0.000000
0.756247 0.000000 0.000000
0.877319 0.000000 0.000000
1.000000 0.000000 0.000000
1.000000 0.000000 0.000000
1.000000 0.000000 0.000000
1.000000 0.000000 0.000000
1.000000 0.000000 0.000000
1.000000 0.000000 0.000000
1.000000 0.000000 0.000000
1.000000 0.000000 0.000000
1.000000 0.000000 0.000000
1.000000 0.000000 0.000000
1.000000 0.000000 0.000000
1.000000 0.000000 0.000000
1.000000 0.000000 0.000000
1.000000 0.000000 0.000000
1.000000 0.000000 0.000000
1.000000 0.000000 0.000000
0.000000 0.150345 0.000000
0.000000 0.147800 0.000000
0.000000 0.145223 0.000000
0.000000 0.142612 0.000000
0.000000 0.139966 0.000000
0.001265 0.137284 0.000000
0.051162 0.133875 0.000000
0.117052 0.128987 0.000000
0.180031 0.122306 0.000000
0.243275 0.113054 0.000000
0.309751 0.099975 0.000000
0.381419 0.080579 0.000000
0.459900 0.053655 0.000000
0.546731 0.017977 0.000000
0.643480 0.000000 0.000000
0.751813 0.000000 0.000000
0.873550 0.000000 0.000000
1.000000 0.000000 0.000000
1.000000 0.000000 0.000000
1.000000 0.000000 0.000000
1.000000 0.000000 0.000000
1.000000 0.000000 0.000000
1.000000 0.000000 0.000000
1.000000 0.000000 0.000000
1.000000 0.000000 0.000000
1.000000 0.000000 0.000000
1.000000 0.000000 0.000000
1.000000 0.000000 0.000000
1.000000 0.000000 0.000000
1.000000 0.000000 0.000000
1.000000 0.000000 0.000000
1.000000 0.000000 0.000000
1.000000 0.000000 0.000000
0.000000 0.191156 0.000000
0.000000 0.189045 0.000000
0.000000 0.186916 0.000000
0.000000 0.184767 0.000000
0.000000 0.182597 0.000000
0.000000 0.180407 0.000000
0.011939 0.177637 0.000000
0.082179 0.173694 0.000000
0.155721 0.168358 0.000000
0.224726 0.161081 0.000000
0.294987 0.151035 0.000000
0.369383 0.136911 0.000000
0.449941 0.116428 0.000000
0.538409 0.084910 0.000000
0.636478 0.037426 0.000000
0.745894 0.000000 0.000000
0.868529 0.000000 0.000000
1.000000 0.000000 0.000000
1.000000 0.000000 0.000000
1.000000 0.000000 0.000000
1.000000 0.000000 0.000000
1.000000 0.000000 0.000000
1.000000 0.000000 0.000000
1.000000 0.000000 0.000000
1.000000 0.000000 0.000000
1.000000 0.000000 0.000000
1.000000 0.000000 0.000000
1.000000 0.000000 0.000000
1.000000 0.000000 0.000000
1.000000 0.000000 0.000000
1.000000 0.000000 0.000000
1.000000 0.000000 0.000000
1.000000 0.000000 0.000000
0.000000 0.236297 0.000000
0.000000 0.234530 0.000000
0.000000 0.232752 0.000000
0.000000 0.230962 0.000000
0.000000 0.229161 0.000000
0.000000 0.227347 0.000000
0.000000 0.225060 0.000000
0.029957 0.221818 0.000000
0.118291 0.217460 0.000000
0.197936 0.211569 0.000000
0.274314 0.203546 0.000000
0.352827 0.192496 0.000000
0.436394 0.177013 0.000000
0.527172 0.154694 0.000000
0.627072 0.120775 0.000000
0.737972 0.063198 0.000000
0.861826 0.000000 0.000000
1.000000 0.000000 0.000000
1.000000 0.000000 0.000000
1.000000 0.000000 0.000000
1.000000 0.000000 0.000000
1.000000 0.000000 0.000000
1.000000 0.000000 0.000000
1.000000 0.000000 0.000000
1.000000 0.000000 0.000000
1.000000 0.000000 0.000000
1.000000 0.000000 0.000000
1.000000 0.000000 0.000000
1.000000 0.000000 0.000000
1.000000 0.000000 0.000000
1.000000 0.000000 0.000000
1.000000 0.000000 0.000000
1.000000 0.000000 0.000000
0.000000 0.286583 0.000000
0.000000 0.285095 0.000000
0.000000 0.283600 0.000000
0.000000 0.282098 0.000000
0.000000 0.280589 0.000000
0.000000 0.279072 0.000000
0.000000 0.277164 0.000000
0.000000 0.274467 0.000000
0.053833 0.270856 0.000000
0.157064 0.266004 0.000000
0.244546 0.259450 0.000000
0.329673 0.250533 0.000000
0.417769 0.238270 0.000000
0.511891 0.221128 0.000000
0.614374 0.196517 0.000000
0.727330 0.159415 0.000000
0.852855 0.096795 0.000000
0.993148 0.000000 0.000000
1.000000 0.000000 0.000000
1.000000 0.000000 0.000000
1.000000 0.000000 0.000000
1.000000 0.000000 0.000000
1.000000 0.000000 0.000000
1.000000 0.000000 0.000000
1.000000 0.000000 0.000000
1.000000 0.000000 0.000000
1.000000 0.000000 0.000000
1.000000 0.000000 0.000000
1.000000 0.000000 0.000000
1.000000 0.000000 0.000000
1.000000 0.000000 0.000000
1.000000 0.000000 0.000000
1.000000 0.000000 0.000000
0.000000 0.342884 0.000000
0.000000 0.341625 0.000000
0.000000 0.340362 0.000000
0.000000 0.339094 0.000000
0.000000 0.337822 0.000000
0.000000 0.336545 0.000000
0.000000 0.334941 0.000000
0.000000 0.332679 0.000000
0.000000 0.329659 0.000000
0.085660 0.325617 0.000000
0.199412 0.320187 0.000000
0.296406 0.312856 0.000000
0.391747 0.302889 0.000000
0.490892 0.289196 0.000000
0.597110 0.270087 0.000000
0.712965 0.242729 0.000000
0.840805 0.201712 0.000000
0.982983 0.133493 0.000000
1.000000 0.000000 0.000000
1.000000 0.000000 0.000000
1.000000 0.000000 0.000000
1.000000 0.000000 0.000000
1.000000 0.000000 0.000000
1.000000 0.000000 0.000000
1.000000 0.000000 0.000000
1.000000 0.000000 0.000000
1.000000 0.000000 0.000000
1.000000 0.000000 0.000000
1.000000 0.000000 0.000000
1.000000 0.000000 0.000000
1.000000 0.000000 0.000000
1.000000 0.000000 0.000000
1.000000 0.000000 0.000000
0.000000 0.406144 0.000000
0.000000 0.405076 0.000000
0.000000 0.404004 0.000000
0.000000 0.402930 0.000000
0.000000 0.401854 0.000000
0.000000 0.400774 0.000000
0.000000 0.399419 0.000000
0.000000 0.397511 0.000000
0.000000 0.394969 0.000000
0.000000 0.391575 0.000000
0.121990 0.387033 0.000000
0.246184 0.380933 0.000000
0.354417 0.372702 0.000000
0.461571 0.361516 0.000000
0.573393 0.346160 0.000000
0.693438 0.324756 0.000000
0.824541 0.294173 0.000000
0.969331 0.248496 0.000000
1.000000 0.173276 0.000000
1.000000 0.009416 0.000000
1.000000 0.000000 0.000000
1.000000 0.000000 0.000000
1.000000 0.000000 0.000000
1.000000 0.000000 0.000000
1.000000 0.000000 0.000000
1.000000 0.000000 0.000000
1.000000 0.000000 0.000000
1.000000 0.000000 0.000000
1.000000 0.000000 0.000000
1.000000 0.000000 0.000000
1.000000 0.000000 0.000000
1.000000 0.000000 0.000000
1.000000 0.000000 0.000000
0.000000 0.477410 0.000000
0.000000 0.476501 0.000000
0.000000 0.475590 0.000000
0.000000 0.474678 0.000000
0.000000 0.473763 0.000000
0.000000 0.472847 0.000000
0.000000 0.471699 0.000000
0.000000 0.470082 0.000000
0.000000 0.467932 0.000000
0.000000 0.465068 0.000000
0.000000 0.461244 0.000000
0.161077 0.456128 0.000000
0.298234 0.449258 0.000000
0.419558 0.439989 0.000000
0.540295 0.427398 0.000000
0.666618 0.410124 0.000000
0.802435 0.386066 0.000000
0.950906 0.351740 0.000000
1.000000 0.300613 0.000000
1.000000 0.216998 0.000000
1.000000 0.026081 0.000000
1.000000 0.000000 0.000000
1.000000 0.000000 0.000000
1.000000 0.000000 0.000000
1.000000 0.000000 0.000000
1.000000 0.000000 0.000000
1.000000 0.000000 0.000000
1.000000 0.000000 0.000000
1.000000 0.000000 0.000000
1.000000 0.000000 0.000000
1.000000 0.000000 0.000000
1.000000 0.000000 0.000000
1.000000 0.000000 0.000000
0.000000 0.557847 0.000000
0.000000 0.557073 0.000000
0.000000 0.556297 0.000000
0.000000 0.555520 0.000000
0.000000 0.554742 0.000000
0.000000 0.553963 0.000000
0.000000 0.552987 0.000000
0.000000 0.551614 0.000000
0.000000 0.549789 0.000000
0.000000 0.547362 0.000000
0.000000 0.544128 0.000000
0.000000 0.539812 0.000000
0.203825 0.534037 0.000000
0.356466 0.526285 0.000000
0.492908 0.515827 0.000000
0.629203 0.501625 0.000000
0.772078 0.482148 0.000000
0.925863 0.455039 0.000000
1.000000 0.416400 0.000000
1.000000 0.358963 0.000000
1.000000 0.265490 0.000000
1.000000 0.048165 0.000000
1.000000 0.000000 0.000000
1.000000 0.000000 0.000000
1.000000 0.000000 0.000000
1.000000 0.000000 0.000000
1.000000 0.000000 0.000000
1.000000 0.000000 0.000000
1.000000 0.000000 0.000000
1.000000 0.000000 0.000000
1.000000 0.000000 0.000000
1.000000 0.000000 0.000000
1.000000 0.000000 0.000000
0.000000 0.648766 0.000000
0.000000 0.648105 0.000000
0.000000 0.647443 0.000000
0.000000 0.646781 0.000000
0.000000 0.646118 0.000000
0.000000 0.645454 0.000000
0.000000 0.644622 0.000000
0.000000 0.643454 0.000000
0.000000 0.641902 0.000000
0.000000 0.639839 0.000000
0.000000 0.637095 0.000000
0.000000 0.633440 0.000000
0.000000 0.628561 0.000000
0.251080 0.622034 0.000000
0.421862 0.613272 0.000000
0.575670 0.601455 0.000000
0.729741 0.585410 0.000000
0.891479 0.563412 0.000000
1.000000 0.532808 0.000000
1.000000 0.489223 0.000000
1.000000 0.424525 0.000000
1.000000 0.319612 0.000000
1.000000 0.077429 0.000000
1.000000 0.000000 0.000000
1.000000 0.000000 0.000000
1.000000 0.000000 0.000000
1.000000 0.000000 0.000000
1.000000 0.000000 0.000000
1.000000 0.000000 0.000000
1.000000 0.000000 0.000000
1.000000 0.000000 0.000000
1.000000 0.000000 0.000000
1.000000 0.000000 0.000000
0.000000 0.751639 0.000000
0.000000 0.751075 0.000000
0.000000 0.750510 0.000000
0.000000 0.749944 0.000000
0.000000 0.749378 0.000000
0.000000 0.748812 0.000000
0.000000 0.748102 0.000000
0.000000 0.747106 0.000000
0.000000 0.745784 0.000000
0.000000 0.744027 0.000000
0.000000 0.741693 0.000000
0.000000 0.738588 0.000000
0.000000 0.734452 0.000000
0.000000 0.728931 0.000000
0.303699 0.721546 0.000000
0.495505 0.711634 0.000000
0.669193 0.698265 0.000000
0.843535 0.680116 0.000000
1.000000 0.655241 0.000000
1.000000 0.620645 0.000000
1.000000 0.571402 0.000000
1.000000 0.498385 0.000000
1.000000 0.380288 0.000000
1.000000 0.113034 0.000000
1.000000 0.000000 0.000000
1.000000 0.000000 0.000000
1.000000 0.000000 0.000000
1.000000 0.000000 0.000000
1.000000 0.000000 0.000000
1.000000 0.000000 0.000000
1.000000 0.000000 0.000000
1.000000 0.000000 0.000000
1.000000 0.000000 0.000000
0.000000 0.868130 0.000000
0.000000 0.867647 0.000000
0.000000 0.867164 0.000000
0.000000 0.866681 0.000000
0.000000 0.866198 0.000000
0.000000 0.865714 0.000000
0.000000 0.865108 0.000000
0.000000 0.864258 0.000000
0.000000 0.863130 0.000000
0.000000 0.861632 0.000000
0.000000 0.859643 0.000000
0.000000 0.857000 0.000000
0.000000 0.853483 0.000000
0.000000 0.848799 0.000000
0.000000 0.842548 0.000000
0.362594 0.834185 0.000000
0.578603 0.822961 0.000000
0.774992 0.807825 0.000000
0.972424 0.787280 0.000000
1.000000 0.759123 0.000000
1.000000 0.719975 0.000000
1.000000 0.664275 0.000000
1.000000 0.581750 0.000000
1.000000 0.448531 0.000000
1.000000 0.151013 0.000000
1.000000 0.000000 0.000000
1.000000 0.000000 0.000000
1.000000 0.000000 0.000000
1.000000 0.000000 0.000000
1.000000 0.000000 0.000000
1.000000 0.000000 0.000000
1.000000 0.000000 0.000000
1.000000 0.000000 0.000000
0.000000 1.000000 0.000000
0.000000 0.999705 0.000000
0.000000 0.999292 0.000000
0.000000 0.998879 0.000000
0.000000 0.998466 0.000000
0.000000 0.998052 0.000000
0.000000 0.997535 0.000000
0.000000 0.996808 0.000000
0.000000 0.995845 0.000000
0.000000 0.994566 0.000000
0.000000 0.992869 0.000000
0.000000 0.990615 0.000000
0.000000 0.987620 0.000000
0.000000 0.983636 0.000000
0.000000 0.978328 0.000000
0.000000 0.971245 0.000000
0.428755 0.961770 0.000000
0.672508 0.949053 0.000000
0.894779 0.931906 0.000000
1.000000 0.908632 0.000000
1.000000 0.876739 0.000000
1.000000 0.832406 0.000000
1.000000 0.769348 0.000000
1.000000 0.675977 0.000000
1.000000 0.525465 0.000000
1.000000 0.192472 0.000000
1.000000 0.000000 0.000000
1.000000 0.000000 0.000000
1.000000 0.000000 0.000000
1.000000 0.000000 0.000000
1.000000 0.000000 0.000000
1.000000 0.000000 0.000000
1.000000 0.000000 0.000000
0.000000 1.000000 0.000000
0.000000 1.000000 0.000000
0.000000 1.000000 0.000000
0.000000 1.000000 0.000000
0.000000 1.000000 0.000000
0.000000 1.000000 0.000000
0.000000 1.000000 0.000000
0.000000 1.000000 0.000000
0.000000 1.000000 0.000000
0.000000 1.000000 0.000000
0.000000 1.000000 0.000000
0.000000 1.000000 0.000000
0.000000 1.000000 0.000000
0.000000 1.000000 0.000000
0.000000 1.000000 0.000000
0.000000 1.000000 0.000000
0.014048 1.000000 0.000000
0.503277 1.000000 0.000000
0.778745 1.000000 0.000000
1.000000 1.000000 0.000000
1.000000 1.000000 0.000000
1.000000 1.000000 0.000000
1.000000 0.959754 0.000000
1.000000 0.888321 0.000000
1.000000 0.782594 0.000000
1.000000 0.612346 0.000000
1.000000 0.238243 0.000000
1.000000 0.000000 0.000000
1.000000 0.000000 0.000000
1.000000 0.000000 0.000000
1.000000 0.000000 0.000000
1.000000 0.000000 0.000000
1.000000 0.000000 0.000000
0.000000 1.000000 0.000000
0.000000 1.000000 0.000000
0.000000 1.000000 0.000000
0.000000 1.000000 0.000000
0.000000 1.000000 0.000000
0.000000 1.000000 0.000000
0.000000 1.000000 0.000000
0.000000 1.000000 0.000000
0.000000 1.000000 0.000000
0.000000 1.000000 0.000000
0.000000 1.000000 0.000000
0.000000 1.000000 0.000000
0.000000 1.000000 0.000000
0.000000 1.000000 0.000000
0.000000 1.000000 0.000000
0.000000 1.000000 0.000000
0.000000 1.000000 0.000000
0.032753 1.000000 0.000000
0.587381 1.000000 0.000000
0.899030 1.000000 0.000000
1.000000 1.000000 0.000000
1.000000 1.000000 0.000000
1.000000 1.000000 0.000000
1.000000 1.000000 0.000000
1.000000 1.000000 0.000000
1.000000 0.903324 0.000000
1.000000 0.710585 0.000000
1.000000 0.289166 0.000000
1.000000 0.000000 0.000000
1.000000 0.000000 0.000000
1.000000 0.000000 0.000000
1.000000 0.000000 0.000000
1.000000 0.000000 0.000000
0.000000 1.000000 0.000000
0.000000 1.000000 0.000000
0.000000 1.000000 0.000000
0.000000 1.000000 0.000000
0.000000 1.000000 0.000000
0.000000 1.000000 0.000000
0.000000 1.000000 0.000000
0.000000 1.000000 0.000000
0.000000 1.000000 0.000000
0.000000 1.000000 0.000000
0.000000 1.000000 0.000000
0.000000 1.000000 0.000000
0.000000 1.000000 0.000000
0.000000 1.000000 0.000000
0.000000 1.000000 0.000000
0.000000 1.000000 0.000000
0.000000 1.000000 0.000000
0.000000 1.000000 0.000000
0.057538 1.000000 0.000000
0.682435 1.000000 0.000000
1.000000 1.000000 0.000000
1.000000 1.000000 0.000000
1.000000 1.000000 0.000000
1.000000 1.000000 0.000000
1.000000 1.000000 0.000000
1.000000 1.000000 0.000000
1.000000 1.000000 0.000000
1.000000 0.821774 0.000000
1.000000 0.346127 0.000000
1.000000 0.000000 0.000000
1.000000 0.000000 0.000000
1.000000 0.000000 0.000000
1.000000 0.000000 0.000000
0.000000 1.000000 0.000000
0.000000 1.000000 0.000000
0.000000 1.000000 0.000000
0.000000 1.000000 0.000000
0.000000 1.000000 0.000000
0.000000 1.000000 0.000000
0.000000 1.000000 0.000000
0.000000 1.000000 0.000000
0.000000 1.000000 0.000000
0.000000 1.000000 0.000000
0.000000 1.000000 0.000000
0.000000 1.000000 0.000000
0.000000 1.000000 0.000000
0.000000 1.000000 0.000000
0.000000 1.000000 0.000000
0.000000 1.000000 0.000000
0.000000 1.000000 0.000000
0.000000 1.000000 0.000000
0.000000 1.000000 0.000000
0.090359 1.000000 0.000000
0.789980 1.000000 0.000000
1.000000 1.000000 0.000000
1.000000 1.000000 0.000000
1.000000 1.000000 0.000000
1.000000 1.000000 0.000000
1.000000 1.000000 0.000000
1.000000 1.000000 0.000000
1.000000 1.000000 0.000000
1.000000 0.947709 0.000000
1.000000 0.410086 0.000000
1.000000 0.000000 0.000000
1.000000 0.000000 0.000000
1.000000 0.000000 0.000000
0.000000 1.000000 0.000000
0.000000 1.000000 0.000000
0.000000 1.000000 0.000000
0.000000 1.000000 0.000000
0.000000 1.000000 0.000000
0.000000 1.000000 0.000000
0.000000 1.000000 0.000000
0.000000 1.000000 0.000000
0.000000 1.000000 0.000000
0.000000 1.000000 0.000000
0.000000 1.000000 0.000000
0.000000 1.000000 0.000000
0.000000 1.000000 0.000000
0.000000 1.000000 0.000000
0.000000 1.000000 0.000000
0.000000 1.000000 0.000000
0.000000 1.000000 0.000000
0.000000 1.000000 0.000000
0.000000 1.000000 0.000000
0.000000 1.000000 0.000000
0.126998 1.000000 0.000000
0.911755 1.000000 0.000000
1.000000 1.000000 0.000000
1.000000 1.000000 0.000000
1.000000 1.000000 0.000000
1.000000 1.000000 0.000000
1.000000 1.000000 0.000000
1.000000 1.000000 0.000000
1.000000 1.000000 0.000000
1.000000 1.000000 0.000000
1.000000 0.482105 0.000000
1.000000 0.000000 0.000000
1.000000 0.000000 0.000000
0.000000 1.000000 0.000000
0.000000 1.000000 0.000000
0.000000 1.000000 0.000000
0.000000 1.000000 0.000000
0.000000 1.000000 0.000000
0.000000 1.000000 0.000000
0.000000 1.000000 0.000000
0.000000 1.000000 0.000000
0.000000 1.000000 0.000000
0.000000 1.000000 0.000000
0.000000 1.000000 0.000000
0.000000 1.000000 0.000000
0.000000 1.000000 0.000000
0.000000 1.000000 0.000000
0.000000 1.000000 0.000000
0.000000 1.000000 0.000000
0.000000 1.000000 0.000000
0.000000 1.000000 0.000000
0.000000 1.000000 0.000000
0.000000 1.000000 0.000000
0.000000 1.000000 0.000000
0.166521 1.000000 0.000000
1.000000 1.000000 0.000000
1.000000 1.000000 0.000000
1.000000 1.000000 0.000000
1.000000 1.000000 0.000000
1.000000 1.000000 0.000000
1.000000 1.000000 0.000000
1.000000 1.000000 0.000000
1.000000 1.000000 0.000000
1.000000 1.000000 0.000000
1.000000 0.563364 0.000000
1.000000 0.000000 0.000000
0.000000 1.000000 0.000000
0.000000 1.000000 0.000000
0.000000 1.000000 0.000000
0.000000 1.000000 0.000000
0.000000 1.000000 0.000000
0.000000 1.000000 0.000000
0.000000 1.000000 0.000000
0.000000 1.000000 0.000000
0.000000 1.000000 0.000000
0.000000 1.000000 0.000000
0.000000 1.000000 0.000000
0.000000 1.000000 0.000000
0.000000 1.000000 0.000000
0.000000 1.000000 0.000000
0.000000 1.000000 0.000000
0.000000 1.000000 0.000000
0.000000 1.000000 0.000000
0.000000 1.000000 0.000000
0.000000 1.000000 0.000000
0.000000 1.000000 0.000000
0.000000 1.000000 0.000000
0.000000 1.000000 0.000000
0.209819 1.000000 0.000000
1.000000 1.000000 0.000000
1.000000 1.000000 0.000000
1.000000 1.000000 0.000000
1.000000 1.000000 0.000000
1.000000 1.000000 0.000000
1.000000 1.000000 0.000000
1.000000 1.000000 0.000000
1.000000 1.000000 0.000000
1.000000 1.000000 0.000000
1.000000 0.655186 0.000000
0.000000 1.000000 0.000000
0.000000 1.000000 0.000000
0.000000 1.000000 0.000000
0.000000 1.000000 0.000000
0.000000 1.000000 0.000000
0.000000 1.000000 0.000000
0.000000 1.000000 0.000000
0.000000 1.000000 0.000000
0.000000 1.000000 0.000000
0.000000 1.000000 0.000000
0.000000 1.000000 0.000000
0.000000 1.000000 0.000000
0.000000 1.000000 0.000000
0.000000 1.000000 0.000000
0.000000 1.000000 0.000000
0.000000 1.000000 0.000000
0.000000 1.000000 0.000000
0.000000 1.000000 0.000000
0.000000 1.000000 0.000000
0.000000 1.000000 0.000000
0.000000 1.000000 0.000000
0.000000 1.000000 0.000000
0.000000 1.000000 0.000000
0.257735 1.000000 0.000000
1.000000 1.000000 0.000000
1.000000 1.000000 0.000000
